X:1
T:Title
%%score { ( 1 3 ) | ( 2 4 ) }
L:1/8
M:6/8
K:Eb
V:1 treble nm="Grand Piano"
V:3 treble 
V:2 bass 
V:4 bass 
V:1
 z3 z2[Q:1/4=100] [EB] | [Ge]2 [Ge] [GB]cB/-[EB]/ | [B,EG]2 [A,DF] E2 E | G2 G F2 E | %4
[M:5/8] [DB]-[DB]- [DB]3 |[M:1/8] [EB] |[M:3/4] [Ge]2 [Ge][GB] cB/-[EB]/ | %7
 [B,EG]2 [A,DF] [G,E]2 [G,E] | [B,EG]2 [EB] [EG]2 [DF] |[M:5/8] E-E- E3 |[M:1/8] B | %11
[M:3/4] [Ge]2 [Ge] [Ae]2 [Ac] | e2- [Ae-] [Ge]2 [GB] | [Ac]2 [Ae] [F=Ad]2 [EAc] | %14
[M:5/8] B3- [AB]2 |[M:1/8] [EB] |[M:3/4] [Ge]2 [Ge][GB] cB/-[EB]/ | [B,EG]2 [A,DF] [G,E]2 [G,E] | %18
 [B,EG]2 [EB] [EG]2 [DF] |[M:13/8] E-E- E3 z z z z z z z2 |] %20
V:2
 z3 z2 [E,G,] | [E,B,]2 [E,B,] z .A>G, | B,,2 B,, [E,G,]2 [E,G,] | %3
 [E,B,E]2 [E,B,E] [D,B,]2 [C,=A,C] |[M:5/8] [B,,B,]-[B,,B,]- [B,,B,]3 |[M:1/8] [E,G,] | %6
[M:3/4] [E,B,]2 .[E,B,]2 .A>G, | B,,2 B,, C,2 C, | B,,2 [B,,G,] [B,,B,]2 [B,,A,] | %9
[M:5/8] [E,G,]-[E,G,]- [E,G,]3 |[M:1/8] [E,G,E] |[M:3/4] [E,B,]2 [E,B,] [A,C]2 [A,E] | %12
 [E,E]2 [E,C] [E,B,]2 [E,E] | [A,E]2 [A,C] F,2 F, |[M:5/8] z FG[K:treble] EF | %15
[M:1/8][K:bass] [E,G,] |[M:3/4] [E,B,]2 .[E,B,]2 .A>G, | B,,2 B,, C,2 C, | %18
 B,,2 [B,,G,] [B,,B,]2 [B,,A,] |[M:13/8] [E,G,]-[E,G,]- [E,G,]3 z z z z z z z2 |] %20
V:3
 x6 | z3 z2 .[EG] | x6 | x6 |[M:5/8] x5 |[M:1/8] x |[M:3/4] z2 z2 z .[EG] | x6 | x6 |[M:5/8] x5 | %10
[M:1/8] x |[M:3/4] x6 | G2 z2 z2 | x6 |[M:5/8] D3 z2 |[M:1/8] x |[M:3/4] z2 z2 z .[EG] | x6 | x6 | %19
[M:13/8] x13 |] %20
V:4
 x6 | z3 [E,E]2 E, | x6 | x6 |[M:5/8] x5 |[M:1/8] x |[M:3/4] z2 z [E,E]2 E, | x6 | x6 |[M:5/8] x5 | %10
[M:1/8] x |[M:3/4] x6 | x6 | x6 |[M:5/8] B,,-B,,- B,,3[K:treble] |[M:1/8][K:bass] x | %16
[M:3/4] z2 z [E,E]2 E, | x6 | x6 |[M:13/8] x13 |] %20

